X: 40913
T: Trip To Amsterdam, The
R: jig
M: 6/8
K: Eminor
EGA BGB|ABA AGF|EGA B2e|dAB GAF|
EGA BGB|ABG AGF|d2A AGF|FED E2z:|
Bce geg|fdA AGF|dA~A2GF|FED EAB|
cde geg|fdA AGF|dA~A2GF|FED E2z:|
EGA B2B|DFG A2A|EGA B2e|dAB GAF|
EGA B2B|DFG A2A|d2A AGF|FED E2z:|

